X:517
T: Shengchan mang
N: C1935
O: China,Henan Shangcheng
S: IV, 111]
R: Xiaodiao, Sijimang]
M: 2/4
L: 1/16
K: D
A2BdB2A2 | BdBAF4 |
F3dB2A2 | B2A2F4 |
d6e2 | B2d2B2A2 |
B3dB2A2 | F2d2B2A2 | B2A2F4 |
F2F4A2 | B3dB2A2 | E2E4A2 | A2FE
F3D | E2E4D2 | A2F2E3
F | B,2D2E4 |
A2B2A2B2 | A2F2E4 |
B,2D2B,2D2 | B,2D2E4 |
A2A2A2E2 | F2A4FE | D8

@@@ Tune index: 7072
